X:0722
T:Oxford Castle.
M:6/8
L:1/8
Q:3/8=120
I (1) :| (2) || (1) :| (2) ||
Z:Jack Campin * www.campin.me.uk * 2009
K:G
g|GBd dBd|geg     dBd|   ece    dBG |F<AA A2A |
  GBd dBd|gag     gdB|[1 dgb    c'af|dgg  g2 :|\
                      [2 dgb    afd |dgg  g2 ||
c'|bgb afd|g/a/bg dBG|   ece    dBg |F<AA A2c'|
   bgb afd|ege    dBG|[1 B/c/dA AFD |DGG  G2 :|\
                      [2 B/c/dg edc |BGG  G2 |]
<end>
<start>
